src/img/icons/play-circle.svg

<svg width="32" height="32" viewBox="0 0 32 32" fill="none" xmlns="http://www.w3.org/2000/svg">
<path d="M13.8321 21.5641L21.2329 16.8216C21.5413 16.625 21.6954 16.3516 21.6954 16.0016C21.6954 15.6516 21.5413 15.3772 21.2329 15.1783L13.8321 10.4358C13.5038 10.2094 13.1684 10.1907 12.8259 10.3795C12.4834 10.5687 12.3121 10.8613 12.3121 11.2575V20.7425C12.3121 21.1386 12.4834 21.4312 12.8259 21.6204C13.1684 21.8093 13.5038 21.7905 13.8321 21.5641ZM16.0029 31.8333C13.8243 31.8333 11.7734 31.4177 9.85002 30.5866C7.92669 29.7555 6.24766 28.623 4.81294 27.1891C3.37849 25.755 2.24544 24.0766 1.41377 22.1541C0.582381 20.2316 0.166687 18.1812 0.166687 16.0029C0.166687 13.8129 0.582243 11.7544 1.41335 9.82746C2.24446 7.90051 3.37697 6.2244 4.81085 4.79913C6.24502 3.37385 7.92335 2.24538 9.84585 1.41371C11.7684 0.58232 13.8188 0.166626 15.9971 0.166626C18.1871 0.166626 20.2456 0.582181 22.1725 1.41329C24.0995 2.2444 25.7756 3.37232 27.2009 4.79704C28.6261 6.22177 29.7546 7.89718 30.5863 9.82329C31.4177 11.7494 31.8334 13.8073 31.8334 15.997C31.8334 18.1757 31.4178 20.2266 30.5867 22.15C29.7556 24.0733 28.6277 25.7523 27.2029 27.187C25.7782 28.6215 24.1028 29.7545 22.1767 30.5862C20.2506 31.4176 18.1927 31.8333 16.0029 31.8333ZM16 29.7391C19.8275 29.7391 23.0743 28.4033 25.7404 25.7316C28.4063 23.06 29.7392 19.8161 29.7392 16C29.7392 12.1725 28.4063 8.92565 25.7404 6.25954C23.0743 3.59371 19.8275 2.26079 16 2.26079C12.1839 2.26079 8.94002 3.59371 6.26835 6.25954C3.59669 8.92565 2.26085 12.1725 2.26085 16C2.26085 19.8161 3.59669 23.06 6.26835 25.7316C8.94002 28.4033 12.1839 29.7391 16 29.7391Z" fill="#131212"/>
</svg>

<svg xmlns="http://www.w3.org/2000/svg" viewBox="0 0 32 32">
  <path fill="currentColor" d="m13.832 21.564 7.4-4.742c.31-.197.463-.47.463-.82s-.154-.625-.462-.824l-7.4-4.742c-.33-.227-.665-.245-1.007-.056-.343.189-.514.481-.514.877v9.486c0 .396.171.688.514.877.342.19.678.17 1.006-.056Zm2.17 10.27c-2.178 0-4.229-.416-6.152-1.247a16.063 16.063 0 0 1-5.037-3.398 16.061 16.061 0 0 1-3.4-5.035C.584 20.232.168 18.181.168 16.003c0-2.19.415-4.249 1.246-6.176.831-1.926 1.964-3.603 3.398-5.028a16.18 16.18 0 0 1 5.035-3.385C11.768.582 13.819.167 15.997.167c2.19 0 4.249.415 6.175 1.246 1.927.831 3.604 1.96 5.029 3.384 1.425 1.425 2.554 3.1 3.385 5.026.832 1.926 1.247 3.984 1.247 6.174 0 2.179-.415 4.23-1.246 6.153a16.18 16.18 0 0 1-3.384 5.037c-1.425 1.434-3.1 2.567-5.026 3.4-1.926.83-3.984 1.246-6.174 1.246ZM16 29.738c3.828 0 7.074-1.336 9.74-4.007 2.666-2.672 4-5.916 4-9.732 0-3.828-1.334-7.074-4-9.74-2.666-2.666-5.912-4-9.74-4-3.816 0-7.06 1.334-9.732 4C3.597 8.926 2.261 12.172 2.261 16c0 3.816 1.336 7.06 4.007 9.732 2.672 2.671 5.916 4.007 9.732 4.007Z"/>
</svg>
